X: 20
T:ROND DE LOUDEAC 14
M:4/4
L:1/8
Q:1/4=120
Z:Yves Belotteau
K:D
|GABG A3/2 z/2 GF|GABG A3/2 z/2 G3/2 z/2 |GABG A3/2 z/2 GF|GABG A3/2 z/2
 G3/2 z/2 |
G3/2 z/2 GE FGA3/2 z/2 |BAGF E3/2 z/2 D3/2 z/2 |G3/2 z/2 GE FGA3/2 z/2 |
BAGF E3/2 z/2 D3/2|
W:
W: From "Falaleiro" http://home.t-online.de/home/pheld/homepage.htm
